src/main/resources/icons/PhpIcons/icons/debug_listen_off.svg

<svg xmlns="http://www.w3.org/2000/svg" width="16" height="16" viewBox="0 0 16 16">
  <g fill="none" fill-rule="evenodd">
    <path fill="#6E6E6E" d="M10,11 L12,11 L12,5 L10,5 L10,1 L12,1 C13.1045695,1 14,1.8954305 14,3 L14,13 C14,14.1045695 13.1045695,15 12,15 L10,15 L10,11 Z"/>
    <path fill="#59A869" d="M7.15555349,13 L7.15555349,13.2230772 C7.15555349,13.4437336 7.1175483,13.795241 7.06343921,14 L8.08571457,14 L8.08571457,15 L6.57130412,15 C6.09849371,15.5761231 5.38476901,15.9 4.57893001,15.9 C3.77309102,15.9 3.05936632,15.5761231 2.58655591,15 L1,15 L1,14 L2.09442082,14 C2.04031173,13.795241 2.00230653,13.4437336 2.00230653,13.2230772 L2.00230653,13 L1,13 L1,12 L2.00230653,12 L2.00230653,11.3153848 C2.00230653,11.2066463 2.02163121,11.105559 2.03515848,11 L1,11 L1,10 L2.36238967,10 C2.60845721,9.58475896 2.96789618,9.29068725 3.40141308,9.06748724 L2.49637409,8.17468721 L3.17982346,7.5 L4.4784417,8.78196928 C4.51258196,8.78069749 4.50871702,8.77561031 4.54285729,8.77561031 C4.55509625,8.77561031 4.6014754,8.78069753 4.61371436,8.78133343 L5.90589111,7.5 L6.58934049,8.17468721 L5.71006772,9.04268724 C6.16419761,9.26461546 6.54038464,9.56949742 6.79547036,10 L8.08571457,10 L8.08571457,11 L7.12270155,11 C7.13622882,11.105559 7.15555349,11.2066463 7.15555349,11.3153848 L7.15555349,12 L8.08571457,12 L8.08571457,13 L7.15555349,13 Z M3.5,11 L3.5,12 L5.59,12 L5.59,11 L3.5,11 Z M3.5,13 L3.5,14 L5.59,14 L5.59,13 L3.5,13 Z"/>
    <path fill="#DB5860" d="M3.48401654,5.72309058 C3.78177312,5.89903535 4.12909578,6 4.5,6 C5.6045695,6 6.5,5.1045695 6.5,4 C6.5,3.62909578 6.39903535,3.28177312 6.22309058,2.98401654 L3.48401654,5.72309058 Z M2.77690967,5.01598389 L5.51598389,2.27690967 C5.21822722,2.10096475 4.8709044,2 4.5,2 C3.3954305,2 2.5,2.8954305 2.5,4 C2.5,4.3709044 2.60096475,4.71822722 2.77690967,5.01598389 Z M4.5,7 C2.84314575,7 1.5,5.65685425 1.5,4 C1.5,2.34314575 2.84314575,1 4.5,1 C6.15685425,1 7.5,2.34314575 7.5,4 C7.5,5.65685425 6.15685425,7 4.5,7 Z"/>
  </g>
</svg>

<svg xmlns="http://www.w3.org/2000/svg" width="16" height="16" viewBox="0 0 16 16"><rect id="frame" width="16" height="16" fill="none"/><g fill="none" fill-rule="evenodd"><path fill="#6E6E6E" d="M10 11h2V5h-2V1h2a2 2 0 0 1 2 2v10a2 2 0 0 1-2 2h-2v-4z"/><path fill="#59A869" d="M7.156 13v.223c0 .22-.038.572-.093.777h1.023v1H6.57c-.473.576-1.186.9-1.992.9s-1.52-.324-1.992-.9H1v-1h1.094a3.68 3.68 0 0 1-.092-.777V13H1v-1h1.002v-.685c0-.108.02-.21.033-.315H1v-1h1.362c.246-.415.606-.71 1.04-.933l-.906-.892.684-.675 1.298 1.282c.035-.001.03-.006.065-.006l.07.005L5.907 7.5l.683.675-.879.868c.454.222.83.526 1.085.957h1.29v1h-.962c.013.106.033.207.033.315V12h.93v1h-.93zM3.5 11v1h2.09v-1H3.5zm0 2v1h2.09v-1H3.5z"/><path fill="#DB5860" d="M3.484 5.723a2 2 0 0 0 2.74-2.74l-2.74 2.74zm-.707-.707l2.739-2.74a2 2 0 0 0-2.74 2.74zM4.5 7a3 3 0 1 1 0-6 3 3 0 0 1 0 6z"/></g></svg>
